X:3
T:Bessie McIntyre
M:C
L:1/8
C:Wm. Maclean
R:Reel
K:D
[|{gAd}A2 e>c {g}e>f{g}e>c | {gAd}A2 {g}c<e {g}f>e{g}f<a | {Ad}A2 e>c {g}e>f{g}e>c | {gBd}B2 {g}c<e {gfg}f2 {g}e<a |
{gAd}A2 e>c {g}e>f{g}e>c | {gAd}A2 {g}c<e {g}f>e{g}f<a |{Ad}A2 {g}e>g {a}f2 {GdG}e>c | {gBd}B2 {g}c<e {gfg}f2 {g}e>f ||
a2 {GdG}a>e {g}f>e{g}c<e | a2 {GdG}a>e {gfg}f2 {g}e>f | a2 {GdG}a>e {g}f<ae>c | {gBd}B2 {g}c<e {gfg}f2 {g}e>f |
a2 {GdG}a>e {g}f>e{g}c<e | a2 {GdG}a>e {gfg}f2 {g}e>f | a>f{g}e>f {gfg}e>c{g}B<{d}A | {gBd}B2 {g}c<e {gfg}f2 {g}e<a ||
A>{d}A{e}A>{d}c {g}A>{d}A{e}A>{d}c | {gAd}A2 {g}c<e {g}f>e{g}f<a | A>{d}A{e}A>{d}c {g}A>{d}A{e}A>{d}c | {gBd}B2 {g}c<e {gfg}f2 {g}e<a |
A>{d}A{e}A>{d}c {g}A>{d}A{e}A>{d}c | {gAd}A2 {g}c<e {g}f>e{g}f<a | {Ad}A2 {g}e>g {a}f2 {GdG}e>c | {gBd}B2 {g}c<e {gfg}f2 {g}e>f ||
{ag}a2 c<a e<ac<e | {ag}a2 c<a {fg}f>e{g}f>g | {ag}a2 c<a e<ac<a | {gBd}B2 {g}c<e {gfg}f2 {g}e>f |
{ag}a2 c<a e<ac<e | {ag}a2 c<a {fg}f>e{g}f>g | a>f{g}e>f {geg}e>c{g}B{d}<A | {gBd}B2 {g}c<e {gfg}f2 {g}e<a |]
